!!!!SEGMENT: pl-sa--102-a-iii-2--004_anonim--missa-de-nativitate-sanctus.krn
!!!cenid: 18xx:1275
!!!COM: Anonim
!!!COM-rismID: pe30004985
!!!CDT:
!!!CNT:
!!!OPR: Missa de Nativitate
!!!OTL: Sanctus
!!!OMV: 004
!!!PDT: 1814
!!!AGN: Sacred; Mass
!!!SMS-siglum: PL-SA
!!!SMS-shelfmark: 102/A III 2
!!!SMS-shelfwork: 001-004 M
!!!SMS-variant: Violino Primo PL-SA 102/A III 2:15-17; Violino Secundo PL-SA 102/A III 2:19-21
!!!SMS-altvar: Violino Primo PL-SA 102/A III 2:11-14; Violino Secundo PL-SA 102/A III 2:23-26
!!!NIFC-rismSourceID: 1001035508
!!!NIFC-rismChildID: 1001035508
!!!NIFC-islandoraID:
!!!URL-pdf-islandora:
!!!URL-scan: https://bc.bdsandomierz.pl/dlibra/publication/1458/edition/1426/content @EN{Scan in the Sandomierz Diocese Digital Library} @PL{Skany w portalu Cyfrowa Biblioteka Diecezjalna w Sandomierzu}
!!!ONB-nifc: UWAGA: części Mszy: 1. Kyrie, 2. Et in terra, 3. Patrem, 4. Sanctus, 5. Benedictus, 6. Agnus Dei
!!!AIN: 1 empty 2 violn 2 vox
!!!key:
**kern	**kern	**kern	**dynam	**kern	**text	**kern	**text
*part5	*part4	*part3	*part3	*part2	*part2	*part1	*part1
*staff5	*staff4	*staff3	*	*staff2	*staff2	*staff1	*staff1
*Iempty	*Ivioln	*Ivioln	*	*Ivox	*	*Ivox	*
*I"Baſso.	*I"Violino 2do.	*I"Violino Primo.	*	*I"Canto 2do.	*	*I"Canto.	*
*I'B.	*I'V-no II	*I'V-no I	*	*I'C.II	*	*I'C.I	*
*clefF4	*clefG2	*clefG2	*	*clefC1	*	*clefC1	*
*k[f#]	*k[f#]	*k[f#]	*	*k[f#]	*	*k[f#]	*
*G:	*G:	*G:	*	*G:	*	*G:	*
*M4/4	*M4/4	*M4/4	*	*M4/4	*	*M4/4	*
*met(c)	*met(c)	*met(c)	*	*met(c)	*	*met(c)	*
=1	=1	=1	=1	=1	=1	=1	=1
*	*	*	*	*2\right	*	*2\right	*
!LO:TX:b:Bi:t=ſanctus:problem='ſanctus' znajduje się po lewej stronie przed kluczem i oznaczeniem metrum	!	!	!	!	!	!	!
!	!LO:TX:b:Bi:t=ſanctus:problem='ſanctus' znajduje się po lewej stronie przed kluczem i oznaczeniem metrum	!LO:TX:b:Bi:t=ſanctus:problem='ſanctus' znajduje się po lewej stronie przed kluczem i oznaczeniem metrum	!	!	!	!	!
!LO:TX:a:Bi:t=Adagio	!LO:TX:a:Bi:t=Adagio	!	!	!LO:TX:a:Bi:t=Adagio	!	!LO:TX:a:Bi:t=Adagio	!
!LO:TX:t=P:problem=mixed beam	!	!	!	!	!	!	!
!	!	!	!LO:DY:a:t=%s.:rj	!	!	!	!
8GG/L	1b 1d	4dd\|	p	2r	.	4dd\	ſan-
8G\	.	.	.	.	.	.	.
8GG/	.	4b\|	.	.	.	4b\	-ctus
8G\J	.	.	.	.	.	.	.
!LO:TX:t=P:problem=mixed beam	!	!	!	!	!	!	!
8GG/L	.	4g/|	.	4g/	ſan-	2r	.
8G\	.	.	.	.	.	.	.
8GG/	.	4d/|	.	4d/	-ctus	.	.
8G\J	.	.	.	.	.	.	.
=2	=2	=2	=2	=2	=2	=2	=2
!LO:TX:t=P:problem=mixed beam	!	!	!	!	!	!	!
8C/L	4cc\|	4ee\|	.	2r	.	4ee\	ſan-
8c\	.	.	.	.	.	.	.
8C/	4a\|	4cc\|	.	.	.	4cc\	-ctus.
8c\J	.	.	.	.	.	.	.
8D\L	4f#/|	4a\|	.	4a\	ſan-	2r	.
8d\	.	.	.	.	.	.	.
8D\	4d/|	4f#/|	.	4f#/	-ctus.	.	.
8d\J	.	.	.	.	.	.	.
=3	=3	=3	=3	=3	=3	=3	=3
2GG/	4g/	8g/L	.	8g\	Do-	8g\	Do-
.	.	8b/J	.	8g\	-mi-	8b\	-mi-
.	8g/L	4dd\	.	4b\	-nu	4dd\	-nus
.	8b/J	.	.	.	.	.	.
4GG/	(>8b\L	(>8dd\L	.	8b\L	De-	8dd\L	De-
.	8cc\J)	8ee\J)	.	8cc\J	-us	8ee\J	-us
4D/	(<8f#/L	(<8a/L	.	8f#/L	ſa-	8a\	ſa-
.	8a/J)	8cc/J)	.	8a/J	-ba-	8cc\	-ba-
=4	=4	=4	=4	=4	=4	=4	=4
4G\	4g/	4b 4d/	.	4g/	-oth	4b\	-oth
4GG/	(<16g/LL	(<16b/LL	.	16g/LL	De-	16b\LL	De-
.	16f#/	16a/	.	16f#/JJ	.	16a\JJ	.
.	16g/	16b/	.	16g/LL	-us	16b\LL	-us
.	16a/JJ)	16cc/JJ)	.	16a/JJ	.	16cc\JJ	.
4GG/	(>8b\L	(>8dd\L	.	(>8b\L	ſa-	8dd\L	ſa-
.	8cc\J)	8ee\J)	.	8cc\J)	.	8ee\J	.
4D/	(<8f#/L	(<8a/L	.	(<8f#/L	-ba-	8a\L	-ba-
.	8a/J)	8cc/J)	.	8a/J)	.	8cc\J	.
=5	=5	=5	=5	=5	=5	=5	=5
!	!	!	!	!LO:SIC:l:s=-oth:v	!	!	!
2GG/	2g 2B;>/	2b 2d;>/	.	2g\	-hoth	2b;>\	-oth
!LO:TX:a:Bi:t=5.:problem:problem=w źródle '5.' nad podwójną kreską	!	!	!	!	!	!	!
2r	2r	2r	.	2r	.	2r	.
!	!	!	!	!LO:LB:g=original	!	!LO:LB:g=original	!
=6||	=6||	=6||	=6||	=6||	=6||	=6||	=6||
*k[f#]	*k[f#]	*k[f#]	*	*	*	*	*
*M6/8	*M6/8	*M6/8	*	*M6/8	*	*M6/8	*
!LO:TX:b:Bi:t=Pleni	!LO:TX:b:Bi:t=Pleni:rj	!LO:TX:b:Bi:t=Pleni	!	!	!	!	!
!LO:TX:a:Bi:t=allo.	!LO:TX:a:Bi:t=allo.	!LO:TX:a:Bi:t=allo.	!	!LO:TX:a:Bi:t=allo.	!	!LO:TX:a:Bi:t=allo.	!
!LO:TX:t=P:problem=mixed beam	!	!	!	!	!	!	!
8GG/L	8B/L	8g/L	.	8g\	Ple-	8g\	Ple-
8G\	8B/	8g/	.	8g\	-ni	8g\	-ni
8G\J	8B/J	8g/J	.	8g\	sunt	8g\	sunt
*	*	*	*	*	*ij	*	*ij
!LO:TX:t=P:problem=mixed beam	!	!	!	!	!	!	!
8GG/L	8g/L	8b/L	.	8g\	ple-	8b\	ple-
8G\	8g/	8b/	.	8g\	-ni	8b\	-ni
8G\J	8g/J	8b/J	.	8g\	sunt	8b\	sunt
*	*	*	*	*	*Xij	*	*Xij
!	!	!LO:PB:g=original	!	!	!	!	!
=7	=7	=7	=7	=7	=7	=7	=7
!LO:TX:t=P:problem=mixed beam	!	!	!	!	!	!	!
8GG/L	8b\L	8dd\L	.	8b\	cae-	8dd\	cae-
8G\	8b\	8dd\	.	8b\	-li	8dd\	-li
8G\J	8b\J	8dd\J	.	8b\	et	8dd\	et
4G\	4b\	4gg\	.	4b\	ter-	4gg\	ter-
8GG/	8b\	8g/	.	8g\	-ra	8g\	-ra
!LO:LB:g=original	!LO:LB:g=original	!	!	!	!	!	!
=8	=8	=8	=8	=8	=8	=8	=8
!	!	!	!	!LO:TX:a:Bi:t=4	!	!LO:TX:a:Bi:t=4.	!
!	!	!	!	!LO:N:vis=00	!	!LO:N:vis=00	!
4GG/	16g''</LL	16b''>\LL	.	0.r	.	0.r	.
.	16a''</	16cc''>\	.	.	.	.	.
.	16b''</	16dd''>\	.	.	.	.	.
.	16cc''</	16ee''>\	.	.	.	.	.
8GG/	16b''</	16dd''>\	.	.	.	.	.
.	16a''</JJ	16cc''>\JJ	.	.	.	.	.
4GG/	8.b\L	8.dd\L	.	.	.	.	.
.	16g\K	16b\K	.	.	.	.	.
8GG/	8g\J	8g\J	.	.	.	.	.
=9	=9	=9	=9	=9	=9	=9	=9
4D\	16f#''</LL	16a''</LL	.	.	.	.	.
.	16g''</	16b''</	.	.	.	.	.
.	16a''</	16cc''</	.	.	.	.	.
.	16b''</	16dd''</	.	.	.	.	.
8D\	16a''</	16cc''</	.	.	.	.	.
.	16g''</JJ	16b''</JJ	.	.	.	.	.
4D\	8.a/L	8.cc\L	.	.	.	.	.
.	16f#/K	16a\K	.	.	.	.	.
8D\	8d/J	8f#\J	.	.	.	.	.
=10	=10	=10	=10	=10	=10	=10	=10
8G\	8g/	8g/L	.	.	.	.	.
8r	8r	16b/L	.	.	.	.	.
.	.	16g/	.	.	.	.	.
8D\	8d/	16d/	.	.	.	.	.
.	.	16f#/JJ	.	.	.	.	.
8G\	8g/	8g/L	.	.	.	.	.
8r	8r	16b/L	.	.	.	.	.
.	.	16g/	.	.	.	.	.
8D\	8d/	16d/	.	.	.	.	.
.	.	16f#/JJ	.	.	.	.	.
=11	=11	=11	=11	=11	=11	=11	=11
!LO:TX:a:t=P:problem=znak początku repetycji	!	!	!	!	!	!	!
8G\	8g/	8g/L	.	.	.	.	.
8r	8r	16b/L	.	.	.	.	.
.	.	16g/	.	.	.	.	.
8D\	8d/	16d/	.	.	.	.	.
.	.	16f#/JJ	.	.	.	.	.
4G\	8g/L	8g/L	.	.	.	.	.
.	8g/	16g/L	.	.	.	.	.
.	.	16b/J	.	.	.	.	.
8r	8b/J	8dd/J	.	.	.	.	.
!LO:TX:a:t=P:problem=znak końca repetycji	!	!	!	!	!	!	!
=12	=12	=12	=12	=12	=12	=12	=12
*rep	*	*	*	*	*	*	*
!LO:TX:a:t=P:problem=powtórzenie taktu oznaczone znakami repetycji	!	!	!	!	!	!	!
!	!	!	!	!	!	!LO:TX:a:t=P:problem=w źródle tajemniczy znak przed nita 8.cc [poprawka skryptora?]	!
!	!	!	!LO:DY:b:t=%s.	!	!	!	!
8G\	8.a/L	8.cc\L	p	8.a\	ple-	8.cc\	Ple-
8r	.	.	.	.	.	.	.
.	16g/K	16b\K	.	16g\	-ni	16b\	-ni.
8D\	8f#/J	8a\J	.	8f#\	sunt	8a\	.
*	*	*	*	*	*ij	*	*
4G\	8g/L	8b\L	.	8g\	ple-	8b\	ple-
.	8g/	8b\	.	8g\	-ni-	8b\	-ni
8r	8b/J	8dd\J	.	8b\	-sunt	8dd\	sunt
*	*	*	*	*	*Xij	*	*
*Xrep	*	*	*	*	*	*	*
=13	=13	=13	=13	=13	=13	=13	=13
8D\L	8.a/L	8.cc\L	.	8.a\	cae-	8.cc\	cae-
8D\	.	.	.	.	.	.	.
.	16g/K	16b\K	.	16g\	-li	16b\	.
8D\J	8f#/J	8a\J	.	8f#\	et	8a\	-li
!	!	!LO:LB:g=original	!	!LO:LB:g=original	!	!LO:LB:g=original	!
8G\	8g/	8b\L	.	8g\	cae-	8b\	cae-
8r	8r	(>16dd\L	.	16b\LL	-li	16dd\LL	-li
.	.	16cc\	.	16g\JJ	.	16b\JJ	.
8D\	8d/	16a\	.	16f#/LL	et	16a\LL	et
.	.	16cc\JJ)	.	16a/JJ	.	16cc\JJ	.
!	!LO:LB:g=original	!	!	!	!	!	!
=14	=14	=14	=14	=14	=14	=14	=14
!	!	!	!	!LO:SIC:l:s=ter-:v	!	!LO:SIC:l:s=ter-:v	!
8G\L	8g/	8b\L	.	8g\	te-	8b\	te-
8G\	8r	(>16dd\L	.	16b\LL	.	16dd\LL	.
!	!	!	!	!	!	!LO:TX:a:i:t=h	!
.	.	16cc\	.	16g\JJ	.	16b\JJ	.
8D\J	8d/	16a\	.	16f#/LL	-re	16a\LL	-ra
.	.	16cc\JJ)	.	16a/JJ	.	16cc\JJ	.
8G\L	4g/	16b/LL	.	16g/LL	glo-	16b\LL	glo-
.	.	16g/JJ	.	16d/JJ	-ria	16g\JJ	-ria
8G\	.	4a/	.	4d/	tu-	4a\	tu-
8D\J	8d/	.	.	.	.	.	.
=15	=15	=15	=15	=15	=15	=15	=15
8GG/L	8g''</L	8g/L	.	4B/	-a	4g/	-a
16GG/L	(<16g/L	16g/L	.	.	.	.	.
16AA/	16f#/	16a/	.	.	.	.	.
16BB/	16g/	16b/	.	8r	.	8r	.
16C#X/JJ	16e/JJ)	16cc#X/JJ	.	.	.	.	.
!LO:LB:g=original	!	!	!	!	!	!	!
8D/L	8f#''</L	8dd\L	.	4r	.	4r	.
16D/L	(<16f#/L	(>16dd\L	.	.	.	.	.
16C#X/JJ	16e/	16cc#X\	.	.	.	.	.
16E/LL	16g/	16ee\	.	8r	.	8r	.
16C#X/JJ	16e/JJ)	16cc#\JJ)	.	.	.	.	.
=16	=16	=16	=16	=16	=16	=16	=16
4D\	8f#''</L	8dd''>\L	.	8f#\	o-	8dd\	oſ-
.	8a''</	8ff#''>\	.	8a\	-san-	8ff#\	-san-
8r	8f#''</J	8dd''>\J	.	8f#\	-na	8dd\	-na
8D/	8f#''</L	8dd\L	.	4r	.	4r	.
16D/LL	(<16f#/L	(>16dd\L	.	.	.	.	.
16C#X/	16e/	16cc#X\	.	.	.	.	.
16E/	16g/	16ee\	.	8r	.	8r	.
16C#X/JJ	16e/JJ)	16cc#\JJ)	.	.	.	.	.
=17	=17	=17	=17	=17	=17	=17	=17
4D\	8f#''</L	8dd''>\L	.	8f#\	o-	8dd\	o-
.	8a''</	8ff#''>\	.	8a\	-san-	8ff#\	-san-
8r	8f#''</J	8dd''>\J	.	8f#\	-na	8dd\	-na
8D\	8f#''</L	8dd\L	.	8f#\	in	8dd\	in
16D/LL	(<16f#/L	(>16dd\L	.	16f#/LL	ex-	16dd\LL	ex-
16C#X/	16e/	16cc#X\	.	16e/JJ	.	16cc#X\JJ	.
16E/	16g/	16ee\	.	16g/LL	-cel-	16ee\LL	-cel-
16C#X/JJ	16e/JJ)	16cc#\JJ)	.	16e/JJ	.	16cc#X\JJ	.
!	!	!	!	!LO:LB:g=original	!	!	!
=18	=18	=18	=18	=18	=18	=18	=18
4D\	4f#/	4dd\	.	4f#/	-sis	4dd\	-sis
8r	8r	8r	.	8r	.	8r	.
8r	8a/L	8ccn\L	.	4r	.	4r	.
8D\L	16a/L	16cc\L	.	.	.	.	.
.	16g/J	16b\J	.	.	.	.	.
8D\J	8a/J	8cc\J	.	8r	.	8r	.
!	!	!	!	!	!	!LO:LB:g=original	!
=19	=19	=19	=19	=19	=19	=19	=19
!	!	!	!	!LO:TX:a:t=P:problem=w źródle fragment słabo widoczny	!	!LO:TX:a:t=P:problem=w źródle fragment słabo widoczny	!
!	!	!	!	!LO:TX:a:Bi:t=2	!	!LO:TX:a:Bi:t=2	!
!	!	!	!	!LO:N:vis=0	!	!LO:N:vis=0	!
8r	8g/L	8b/L	.	1.r	.	1.r	.
!LO:TX:t=P:problem=mixed beam	!	!	!	!	!	!	!
8G\L	16g/L	16b/L	.	.	.	.	.
.	16f#/J	16a/J	.	.	.	.	.
8GG/J	8g/J	8b/J	.	.	.	.	.
!	!	!LO:LB:g=original	!	!	!	!	!
8r	8c/L	8a/L	.	.	.	.	.
!LO:TX:t=P:problem=mixed beam	!	!	!	!	!	!	!
8D\L	16c/L	(<16a/L	.	.	.	.	.
.	16B/	16g/	.	.	.	.	.
8DD/J	16c/	16a/	.	.	.	.	.
.	16d/JJ	16b/JJ)	.	.	.	.	.
=20	=20	=20	=20	=20	=20	=20	=20
4GG/	4B/	4g/	.	.	.	.	.
!LO:TX:b:Bi:t=Sequitur Benedictus	!	!	!	!	!	!	!
!LO:TX:a:Bi:t=15.:problem:problem=w źródle '15.' nad kreską końcową	!	!	!	!	!	!	!
2r	8r	8r	.	.	.	.	.
.	4r	4r	.	.	.	.	.
!	!LO:TX:a:t=P:problem=w źródle pauza niewidoczna; powtórzona przez skryptora wyżej nad kreską końcową	!	!	!	!	!	!
.	8r	8r	.	.	.	.	.
==	==	==	==	==	==	==	==
*-	*-	*-	*-	*-	*-	*-	*-
!!!system-decoration: [(s1,s2)][(s3,s4)]s5
!!!RDF**kern: > = above
!!!RDF**kern: < = below
!!!RDF**kern: | = vertical stroke
!!!EED: Wojciech Jakubiak-Danek
!!!EEV: 2021-01-07
!!!ENC: Andrzej Gręziak
!!!END: 2020-12-08
!!!YEC: Copyright 2022 Narodowy Instytut Fryderyka Chopina (https://polishscores.org)
!!!YEM: License CC-BY-4.0 (https://creativecommons.org/licenses/by/4.0)
